humanity-icon-theme/Humanity/places/32/user-home.svg

<?xml version="1.0" encoding="UTF-8" standalone="no"?>
<!-- Created with Inkscape (http://www.inkscape.org/) -->
<svg
   xmlns:svg="http://www.w3.org/2000/svg"
   xmlns="http://www.w3.org/2000/svg"
   xmlns:xlink="http://www.w3.org/1999/xlink"
   version="1.0"
   width="32"
   height="32"
   id="svg3272">
  <defs
     id="defs3274">
    <linearGradient
       x1="48.506851"
       y1="33.545078"
       x2="48.506851"
       y2="25.541096"
       id="linearGradient3428"
       xlink:href="#linearGradient6129-963-697-142-998-580-273"
       gradientUnits="userSpaceOnUse"
       gradientTransform="translate(-31,0)" />
    <linearGradient
       x1="39.575344"
       y1="15.07684"
       x2="42.150684"
       y2="22.112585"
       id="linearGradient3418"
       xlink:href="#linearGradient8265-821-176-38-919-66-249"
       gradientUnits="userSpaceOnUse"
       gradientTransform="translate(-31,0)" />
    <radialGradient
       cx="34"
       cy="7.4931498"
       r="12.976028"
       fx="34"
       fy="7.4931498"
       id="radialGradient3403"
       xlink:href="#linearGradient6087-437-184-795-110-662-495"
       gradientUnits="userSpaceOnUse"
       gradientTransform="matrix(5.961647e-8,1.3080358,-1.9999999,9.1154183e-8,17.986296,-32.47322)" />
    <linearGradient
       x1="48.86515"
       y1="30.000319"
       x2="48.86515"
       y2="11.200529"
       id="linearGradient3375"
       xlink:href="#linearGradient3390-178-986-453"
       gradientUnits="userSpaceOnUse"
       gradientTransform="translate(-30.958904,0)" />
    <radialGradient
       cx="39.539452"
       cy="13.330049"
       r="14"
       fx="39.539452"
       fy="13.330049"
       id="radialGradient3367"
       xlink:href="#linearGradient7012-661-145-733-759-865-745-661-970-94"
       gradientUnits="userSpaceOnUse"
       gradientTransform="matrix(-4.4437869e-8,0.883513,-2.0862377,1.0226957e-7,35.64527,-17.282937)" />
    <radialGradient
       cx="605.71429"
       cy="486.64789"
       r="117.14286"
       fx="605.71429"
       fy="486.64789"
       id="radialGradient2589"
       xlink:href="#linearGradient5060-820"
       gradientUnits="userSpaceOnUse"
       gradientTransform="matrix(-3.212956e-2,0,0,3.705882e-2,23.363215,25.412461)" />
    <radialGradient
       cx="605.71429"
       cy="486.64789"
       r="117.14286"
       fx="605.71429"
       fy="486.64789"
       id="radialGradient2587"
       xlink:href="#linearGradient5060-179"
       gradientUnits="userSpaceOnUse"
       gradientTransform="matrix(3.212956e-2,0,0,3.705882e-2,24.636785,25.412461)" />
    <linearGradient
       x1="302.85715"
       y1="366.64789"
       x2="302.85715"
       y2="609.50507"
       id="linearGradient2585"
       xlink:href="#linearGradient5048-585"
       gradientUnits="userSpaceOnUse"
       gradientTransform="matrix(8.284024e-2,0,0,3.705882e-2,-5.9408285,25.412461)" />
    <radialGradient
       cx="3"
       cy="5.01718"
       r="21"
       fx="3"
       fy="5.01718"
       id="radialGradient2583"
       xlink:href="#linearGradient3484"
       gradientUnits="userSpaceOnUse"
       gradientTransform="matrix(0,1.0974979,-1.3855921,0,8.7569516,2.839947)" />
    <linearGradient
       x1="62.988873"
       y1="13.182598"
       x2="62.988873"
       y2="16.19013"
       id="linearGradient2581"
       xlink:href="#linearGradient6404"
       gradientUnits="userSpaceOnUse"
       gradientTransform="matrix(0.6416766,0,0,0.6402049,-32.150097,1.010881)" />
    <linearGradient
       id="linearGradient3484">
      <stop
         id="stop3486"
         style="stop-color:#bdbdbd;stop-opacity:1"
         offset="0" />
      <stop
         id="stop3488"
         style="stop-color:#d0d0d0;stop-opacity:1"
         offset="1" />
    </linearGradient>
    <radialGradient
       cx="3"
       cy="5.01718"
       r="21"
       fx="3"
       fy="5.01718"
       id="radialGradient2788"
       xlink:href="#linearGradient3484"
       gradientUnits="userSpaceOnUse"
       gradientTransform="matrix(-1.274898e-8,1.7142916,-2.159331,-1.4599595e-8,12.809361,2.8570011)" />
    <linearGradient
       id="linearGradient6404">
      <stop
         id="stop6406"
         style="stop-color:#f9f9f9;stop-opacity:1"
         offset="0" />
      <stop
         id="stop6408"
         style="stop-color:#c9c9c9;stop-opacity:1"
         offset="1" />
    </linearGradient>
    <linearGradient
       x1="62.988873"
       y1="13.182598"
       x2="62.988873"
       y2="16.19013"
       id="linearGradient2786"
       xlink:href="#linearGradient6404"
       gradientUnits="userSpaceOnUse"
       gradientTransform="translate(-50.940898,0)" />
    <linearGradient
       id="linearGradient5060-820">
      <stop
         id="stop2681"
         style="stop-color:#000000;stop-opacity:1"
         offset="0" />
      <stop
         id="stop2683"
         style="stop-color:#000000;stop-opacity:0"
         offset="1" />
    </linearGradient>
    <radialGradient
       cx="605.71429"
       cy="486.64789"
       r="117.14286"
       fx="605.71429"
       fy="486.64789"
       id="radialGradient7600-312"
       xlink:href="#linearGradient5060-820"
       gradientUnits="userSpaceOnUse"
       gradientTransform="matrix(-3.212956e-2,0,0,3.705882e-2,23.363215,25.412461)" />
    <linearGradient
       id="linearGradient5060-179">
      <stop
         id="stop2675"
         style="stop-color:#000000;stop-opacity:1"
         offset="0" />
      <stop
         id="stop2677"
         style="stop-color:#000000;stop-opacity:0"
         offset="1" />
    </linearGradient>
    <radialGradient
       cx="605.71429"
       cy="486.64789"
       r="117.14286"
       fx="605.71429"
       fy="486.64789"
       id="radialGradient7598-526"
       xlink:href="#linearGradient5060-179"
       gradientUnits="userSpaceOnUse"
       gradientTransform="matrix(3.212956e-2,0,0,3.705882e-2,24.636785,25.412461)" />
    <linearGradient
       id="linearGradient5048-585">
      <stop
         id="stop2667"
         style="stop-color:#000000;stop-opacity:0"
         offset="0" />
      <stop
         id="stop2669"
         style="stop-color:#000000;stop-opacity:1"
         offset="0.5" />
      <stop
         id="stop2671"
         style="stop-color:#000000;stop-opacity:0"
         offset="1" />
    </linearGradient>
    <linearGradient
       x1="302.85715"
       y1="366.64789"
       x2="302.85715"
       y2="609.50507"
       id="linearGradient7596-975"
       xlink:href="#linearGradient5048-585"
       gradientUnits="userSpaceOnUse"
       gradientTransform="matrix(8.284024e-2,0,0,3.705882e-2,-5.9408285,25.412461)" />
    <linearGradient
       id="linearGradient3390-178-986-453">
      <stop
         id="stop3624"
         style="stop-color:#bb2b12;stop-opacity:1"
         offset="0" />
      <stop
         id="stop3626"
         style="stop-color:#cd7233;stop-opacity:1"
         offset="1" />
    </linearGradient>
    <linearGradient
       x1="82.453476"
       y1="45.114193"
       x2="65.340263"
       y2="15.943953"
       id="linearGradient2779"
       xlink:href="#linearGradient3390-178-986-453"
       gradientUnits="userSpaceOnUse"
       gradientTransform="translate(-53.765393,-0.1141929)" />
    <linearGradient
       id="linearGradient7012-661-145-733-759-865-745-661-970-94">
      <stop
         id="stop3618"
         style="stop-color:#edb763;stop-opacity:1"
         offset="0" />
      <stop
         id="stop3270"
         style="stop-color:#de7f32;stop-opacity:1"
         offset="0.5" />
      <stop
         id="stop3620"
         style="stop-color:#d24413;stop-opacity:1"
         offset="1" />
    </linearGradient>
    <radialGradient
       cx="63.969177"
       cy="14.113381"
       r="23.097054"
       fx="63.969177"
       fy="14.113381"
       id="radialGradient2777"
       xlink:href="#linearGradient7012-661-145-733-759-865-745-661-970-94"
       gradientUnits="userSpaceOnUse"
       gradientTransform="matrix(1.5646925,-9.5143002e-8,6.1772287e-8,1.015888,-86.212573,8.1461173)" />
    <linearGradient
       id="linearGradient6129-963-697-142-998-580-273">
      <stop
         id="stop2661"
         style="stop-color:#0a0a0a;stop-opacity:0.498"
         offset="0" />
      <stop
         id="stop2663"
         style="stop-color:#0a0a0a;stop-opacity:0"
         offset="1" />
    </linearGradient>
    <linearGradient
       x1="22.934725"
       y1="49.629246"
       x2="22.809399"
       y2="36.657963"
       id="linearGradient2774"
       xlink:href="#linearGradient6129-963-697-142-998-580-273"
       gradientUnits="userSpaceOnUse"
       gradientTransform="matrix(1.1446925,0,0,0.9977536,-3.4661413,1.0988425)" />
    <linearGradient
       id="linearGradient6087-437-184-795-110-662-495">
      <stop
         id="stop2693"
         style="stop-color:#ffffff;stop-opacity:0.40000001"
         offset="0" />
      <stop
         id="stop2695"
         style="stop-color:#ffffff;stop-opacity:0"
         offset="1" />
    </linearGradient>
    <radialGradient
       cx="7.2646537"
       cy="8.3021259"
       r="20.979567"
       fx="7.2646537"
       fy="8.3021259"
       id="radialGradient2771"
       xlink:href="#linearGradient6087-437-184-795-110-662-495"
       gradientUnits="userSpaceOnUse"
       gradientTransform="matrix(0,1.2079744,-1.6271642,0,26.371748,8.2664685)" />
    <linearGradient
       id="linearGradient8265-821-176-38-919-66-249">
      <stop
         id="stop2687"
         style="stop-color:#ffffff;stop-opacity:0.27450982"
         offset="0" />
      <stop
         id="stop2689"
         style="stop-color:#ffffff;stop-opacity:0.07843138"
         offset="1" />
    </linearGradient>
    <linearGradient
       x1="11.566265"
       y1="22.292103"
       x2="15.214532"
       y2="33.95525"
       id="linearGradient2768"
       xlink:href="#linearGradient8265-821-176-38-919-66-249"
       gradientUnits="userSpaceOnUse" />
  </defs>
  <g
     id="g2880">
    <path
       d="M 3,6.5074165 C 2.5570692,6.5123275 2.5,6.7264605 2.5,7.1476215 C 2.5,10.678003 2.5205901,13.328153 2.5,16.536126 C 3.4211078,16.536126 29.514588,14.167539 29.514588,13.147993 L 29.514588,9.1820816 C 29.514588,8.7609206 29.158968,8.5369656 28.716035,8.5418766 L 15.937721,8.5418766 C 14.623899,8.5418766 13.692564,6.5074165 12.729338,6.5074165 L 3,6.5074165 z"
       id="path2882"
       style="fill:url(#linearGradient2581);fill-opacity:1;stroke:url(#radialGradient2583);stroke-width:1.00000012;stroke-linecap:round;stroke-linejoin:round;stroke-miterlimit:4;stroke-dasharray:none;stroke-opacity:1;display:inline" />
    <g
       transform="matrix(0.61494,0,0,0.4268033,1.1791618,10.513442)"
       id="g2884"
       style="opacity:0.4">
      <rect
         width="40"
         height="9"
         x="4"
         y="39"
         id="rect2886"
         style="fill:url(#linearGradient2585);fill-opacity:1;fill-rule:nonzero;stroke:none;stroke-width:1;marker:none;visibility:visible;display:inline;overflow:visible" />
      <path
         d="M 44,39.00031 C 44,39.00031 44,47.999814 44,47.999814 C 45.654593,48.016754 48.000001,45.983481 48,43.499483 C 48,41.015484 46.153598,39.00031 44,39.00031 z"
         id="path2888"
         style="fill:url(#radialGradient2587);fill-opacity:1;fill-rule:nonzero;stroke:none;stroke-width:1;marker:none;visibility:visible;display:inline;overflow:visible" />
      <path
         d="M 4,39.00031 C 4,39.00031 4,47.999814 4,47.999814 C 2.3454068,48.016755 0,45.983481 0,43.499483 C 0,41.015484 1.8464008,39.00031 4,39.00031 z"
         id="path2890"
         style="fill:url(#radialGradient2589);fill-opacity:1;fill-rule:nonzero;stroke:none;stroke-width:1;marker:none;visibility:visible;display:inline;overflow:visible" />
    </g>
    <rect
       width="8"
       height="1"
       rx="0.61538464"
       ry="0.5"
       x="4"
       y="8"
       id="rect2892"
       style="fill:#eda374;fill-opacity:1;fill-rule:nonzero;stroke:none;stroke-width:1;marker:none;visibility:visible;display:block;overflow:visible;enable-background:accumulate" />
    <rect
       width="27"
       height="18"
       rx="0.58748257"
       ry="0.51489031"
       x="2.5"
       y="11.500001"
       id="rect2593"
       style="opacity:1;fill:url(#radialGradient3367);fill-opacity:1;stroke:url(#linearGradient3375);stroke-width:1;stroke-opacity:1" />
    <path
       d="M 3.5,28.438356 L 3.5,12.5 L 28.452055,12.5"
       id="path3379"
       style="opacity:1;fill:none;fill-rule:evenodd;stroke:url(#radialGradient3403);stroke-width:1px;stroke-linecap:butt;stroke-linejoin:miter;stroke-opacity:1" />
    <path
       d="M 2.59375,11 C 2.25623,11 2,11.230154 2,11.53125 L 2,20.46875 L 30,16.34375 L 30,11.53125 C 30,11.230154 29.74377,11 29.40625,11 L 2.59375,11 z"
       id="rect3405"
       style="opacity:1;fill:url(#linearGradient3418);fill-opacity:1;stroke:none;stroke-width:1;stroke-opacity:1" />
    <rect
       width="28"
       height="19"
       rx="0.60924119"
       ry="0.54349536"
       x="2"
       y="11"
       id="rect3420"
       style="opacity:0.4;fill:url(#linearGradient3428);fill-opacity:1;stroke:none;stroke-width:1;stroke-opacity:1" />
  </g>
  <path
     d="M 10.179521,20.990903 L 10.131581,27.839433 L 15.438402,27.841433 L 15.437202,23.277029 L 18.625099,23.242289 L 18.602559,27.863 L 22.893526,27.84617 L 22.906166,20.985536 L 25,20.986636 L 16.484428,14.000433 L 8,21.000433 L 10.179521,20.990833 L 10.179521,20.990903 z"
     id="path892"
     style="opacity:0.4;fill:#ffffff;fill-opacity:1;fill-rule:evenodd;stroke:none;display:inline" />
  <path
     d="M 10.195098,19.990903 L 10.146818,26.839433 L 15.491566,26.841433 L 15.490366,22.277029 L 18.701047,22.242289 L 18.678347,26.863 L 23,26.846134 L 23.01273,19.9855 L 25.121495,19.9866 L 16.545066,13.000436 L 8,20.000436 L 10.195098,19.990836 L 10.195098,19.990903 z"
     id="path892-2"
     style="opacity:0.9;fill:#a92811;fill-opacity:1;fill-rule:evenodd;stroke:none;display:inline" />
</svg>

<?xml version="1.0" encoding="UTF-8" standalone="no"?>
<!-- Created with Inkscape (http://www.inkscape.org/) -->

<svg
   xmlns:svg="http://www.w3.org/2000/svg"
   xmlns="http://www.w3.org/2000/svg"
   xmlns:xlink="http://www.w3.org/1999/xlink"
   version="1.0"
   width="32"
   height="32"
   id="svg2468">
  <defs
     id="defs2470">
    <linearGradient
       id="linearGradient3484">
      <stop
         id="stop3486"
         style="stop-color:#bdbdbd;stop-opacity:1"
         offset="0" />
      <stop
         id="stop3488"
         style="stop-color:#d0d0d0;stop-opacity:1"
         offset="1" />
    </linearGradient>
    <linearGradient
       id="linearGradient6404">
      <stop
         id="stop6406"
         style="stop-color:#f9f9f9;stop-opacity:1"
         offset="0" />
      <stop
         id="stop6408"
         style="stop-color:#c9c9c9;stop-opacity:1"
         offset="1" />
    </linearGradient>
    <linearGradient
       id="linearGradient5060-820">
      <stop
         id="stop2681"
         style="stop-color:#000000;stop-opacity:1"
         offset="0" />
      <stop
         id="stop2683"
         style="stop-color:#000000;stop-opacity:0"
         offset="1" />
    </linearGradient>
    <linearGradient
       id="linearGradient5060-179">
      <stop
         id="stop2675"
         style="stop-color:#000000;stop-opacity:1"
         offset="0" />
      <stop
         id="stop2677"
         style="stop-color:#000000;stop-opacity:0"
         offset="1" />
    </linearGradient>
    <linearGradient
       id="linearGradient5048-585">
      <stop
         id="stop2667"
         style="stop-color:#000000;stop-opacity:0"
         offset="0" />
      <stop
         id="stop2669"
         style="stop-color:#000000;stop-opacity:1"
         offset="0.5" />
      <stop
         id="stop2671"
         style="stop-color:#000000;stop-opacity:0"
         offset="1" />
    </linearGradient>
    <linearGradient
       id="linearGradient3390-178-986-453">
      <stop
         id="stop3624"
         style="stop-color:#bb5e12;stop-opacity:1"
         offset="0" />
      <stop
         id="stop3626"
         style="stop-color:#cd8033;stop-opacity:1"
         offset="1" />
    </linearGradient>
    <linearGradient
       id="linearGradient7012-661-145-733-759-865-745-661-970-94">
      <stop
         id="stop3618"
         style="stop-color:#edd563;stop-opacity:1"
         offset="0" />
      <stop
         id="stop3620"
         style="stop-color:#e08223;stop-opacity:1"
         offset="1" />
    </linearGradient>
    <linearGradient
       id="linearGradient6129-963-697-142-998-580-273">
      <stop
         id="stop2661"
         style="stop-color:#0a0a0a;stop-opacity:0.498"
         offset="0" />
      <stop
         id="stop2663"
         style="stop-color:#0a0a0a;stop-opacity:0"
         offset="1" />
    </linearGradient>
    <linearGradient
       id="linearGradient6087-437-184-795-110-662-495">
      <stop
         id="stop2693"
         style="stop-color:#ffffff;stop-opacity:0.40000001"
         offset="0" />
      <stop
         id="stop2695"
         style="stop-color:#ffffff;stop-opacity:0"
         offset="1" />
    </linearGradient>
    <linearGradient
       id="linearGradient8265-821-176-38-919-66-249">
      <stop
         id="stop2687"
         style="stop-color:#ffffff;stop-opacity:0.27450982"
         offset="0" />
      <stop
         id="stop2689"
         style="stop-color:#ffffff;stop-opacity:0.07843138"
         offset="1" />
    </linearGradient>
    <linearGradient
       x1="62.988873"
       y1="13.182598"
       x2="62.988873"
       y2="16.19013"
       id="linearGradient2581"
       xlink:href="#linearGradient6404"
       gradientUnits="userSpaceOnUse"
       gradientTransform="matrix(0.6416766,0,0,0.6402049,-32.150097,1.010881)" />
    <radialGradient
       cx="3"
       cy="5.01718"
       r="21"
       fx="3"
       fy="5.01718"
       id="radialGradient2583"
       xlink:href="#linearGradient3484"
       gradientUnits="userSpaceOnUse"
       gradientTransform="matrix(0,1.0974979,-1.3855921,0,8.7569516,2.839947)" />
    <linearGradient
       x1="302.85715"
       y1="366.64789"
       x2="302.85715"
       y2="609.50507"
       id="linearGradient2585"
       xlink:href="#linearGradient5048-585"
       gradientUnits="userSpaceOnUse"
       gradientTransform="matrix(0.08284024,0,0,0.03705882,-5.9408285,25.412461)" />
    <radialGradient
       cx="605.71429"
       cy="486.64789"
       r="117.14286"
       fx="605.71429"
       fy="486.64789"
       id="radialGradient2587"
       xlink:href="#linearGradient5060-179"
       gradientUnits="userSpaceOnUse"
       gradientTransform="matrix(0.03212956,0,0,0.03705882,24.636785,25.412461)" />
    <radialGradient
       cx="605.71429"
       cy="486.64789"
       r="117.14286"
       fx="605.71429"
       fy="486.64789"
       id="radialGradient2589"
       xlink:href="#linearGradient5060-820"
       gradientUnits="userSpaceOnUse"
       gradientTransform="matrix(-0.03212956,0,0,0.03705882,23.363215,25.412461)" />
    <radialGradient
       cx="39.539452"
       cy="13.330049"
       r="14"
       fx="39.539452"
       fy="13.330049"
       id="radialGradient3367"
       xlink:href="#linearGradient7012-661-145-733-759-865-745-661-970-94"
       gradientUnits="userSpaceOnUse"
       gradientTransform="matrix(-4.4437869e-8,0.883513,-2.0862377,1.0226957e-7,35.64527,-17.282937)" />
    <linearGradient
       x1="48.86515"
       y1="30.000319"
       x2="48.86515"
       y2="11.200529"
       id="linearGradient3375"
       xlink:href="#linearGradient3390-178-986-453"
       gradientUnits="userSpaceOnUse"
       gradientTransform="translate(-30.958904,0)" />
    <radialGradient
       cx="34"
       cy="7.4931498"
       r="12.976028"
       fx="34"
       fy="7.4931498"
       id="radialGradient3403"
       xlink:href="#linearGradient6087-437-184-795-110-662-495"
       gradientUnits="userSpaceOnUse"
       gradientTransform="matrix(5.961647e-8,1.3080358,-1.9999999,9.1154183e-8,17.986296,-32.47322)" />
    <linearGradient
       x1="39.575344"
       y1="15.07684"
       x2="42.150684"
       y2="22.112585"
       id="linearGradient3418"
       xlink:href="#linearGradient8265-821-176-38-919-66-249"
       gradientUnits="userSpaceOnUse"
       gradientTransform="translate(-31,0)" />
    <linearGradient
       x1="48.506851"
       y1="33.545078"
       x2="48.506851"
       y2="25.541096"
       id="linearGradient3428"
       xlink:href="#linearGradient6129-963-697-142-998-580-273"
       gradientUnits="userSpaceOnUse"
       gradientTransform="translate(-31,0)" />
  </defs>
  <g
     id="layer1">
    <path
       d="m 3,6.5074165 c -0.4429308,0.00491 -0.5,0.219044 -0.5,0.640205 0,3.5303815 0.02059,6.1805315 0,9.3885045 0.9211078,0 27.014588,-2.368587 27.014588,-3.388133 l 0,-3.9659114 c 0,-0.421161 -0.35562,-0.645116 -0.798553,-0.640205 l -12.778314,0 c -1.313822,0 -2.245157,-2.0344601 -3.208383,-2.0344601 l -9.729338,0 z"
       id="path3468"
       style="fill:url(#linearGradient2581);fill-opacity:1;stroke:url(#radialGradient2583);stroke-width:1.00000012;stroke-linecap:round;stroke-linejoin:round;stroke-miterlimit:4;stroke-opacity:1;stroke-dasharray:none;display:inline" />
    <g
       transform="matrix(0.61494,0,0,0.4268033,1.1791618,10.513442)"
       id="g7591"
       style="opacity:0.4">
      <rect
         width="40"
         height="9"
         x="4"
         y="39"
         id="rect4173"
         style="fill:url(#linearGradient2585);fill-opacity:1;fill-rule:nonzero;stroke:none;stroke-width:1;marker:none;visibility:visible;display:inline;overflow:visible" />
      <path
         d="m 44,39.00031 c 0,0 0,8.999504 0,8.999504 1.654593,0.01694 4.000001,-2.016333 4,-4.500331 0,-2.483999 -1.846402,-4.499173 -4,-4.499173 z"
         id="path5058"
         style="fill:url(#radialGradient2587);fill-opacity:1;fill-rule:nonzero;stroke:none;stroke-width:1;marker:none;visibility:visible;display:inline;overflow:visible" />
      <path
         d="m 4,39.00031 c 0,0 0,8.999504 0,8.999504 C 2.3454068,48.016755 0,45.983481 0,43.499483 0,41.015484 1.8464008,39.00031 4,39.00031 z"
         id="path5018"
         style="fill:url(#radialGradient2589);fill-opacity:1;fill-rule:nonzero;stroke:none;stroke-width:1;marker:none;visibility:visible;display:inline;overflow:visible" />
    </g>
    <rect
       width="8"
       height="1"
       rx="0.61538464"
       ry="0.5"
       x="4"
       y="8"
       id="rect3562"
       style="fill:#edbd74;fill-opacity:1;fill-rule:nonzero;stroke:none;stroke-width:1;marker:none;visibility:visible;display:block;overflow:visible;enable-background:accumulate" />
    <rect
       width="27"
       height="18"
       rx="0.58748257"
       ry="0.51489031"
       x="2.5"
       y="11.500001"
       id="rect2593"
       style="fill:url(#radialGradient3367);fill-opacity:1;stroke:url(#linearGradient3375);stroke-width:1;stroke-opacity:1" />
    <path
       d="M 3.5,28.438356 3.5,12.5 l 24.952055,0"
       id="path3379"
       style="fill:none;stroke:url(#radialGradient3403);stroke-width:1px;stroke-linecap:butt;stroke-linejoin:miter;stroke-opacity:1" />
    <path
       d="M 2.59375,11 C 2.25623,11 2,11.230154 2,11.53125 l 0,8.9375 28,-4.125 0,-4.8125 C 30,11.230154 29.74377,11 29.40625,11 l -26.8125,0 z"
       id="rect3405"
       style="fill:url(#linearGradient3418);fill-opacity:1;stroke:none" />
    <rect
       width="28"
       height="19"
       rx="0.60924119"
       ry="0.54349536"
       x="2"
       y="11"
       id="rect3420"
       style="opacity:0.4;fill:url(#linearGradient3428);fill-opacity:1;stroke:none" />
  </g>
  <path
     d="m 10.179521,20.990903 -0.04794,6.84853 5.306821,0.002 -0.0012,-4.564404 3.187897,-0.03474 -0.02254,4.620711 4.290967,-0.01683 0.01264,-6.860634 2.093834,0.0011 -8.515572,-6.986203 -8.484428,7 2.179521,-0.0096 z"
     id="path892"
     style="opacity:0.4;fill:#ffffff;fill-opacity:1;fill-rule:evenodd;stroke:none;display:inline" />
  <path
     d="m 10.195098,19.990903 -0.04828,6.84853 5.344748,0.002 -0.0012,-4.564404 3.210681,-0.03474 L 18.678347,26.863 23,26.846134 23.01273,19.9855 l 2.108765,0.0011 -8.576429,-6.986164 -8.545066,7 2.195098,-0.0096 z"
     id="path892-2"
     style="opacity:0.9;fill:#bb5e12;fill-opacity:1;fill-rule:evenodd;stroke:none;display:inline" />
</svg>
